packages/gestalt-icons-android/vr-theme/ic_vr_switch-account_gestalt.svg

<svg width="24" height="24" viewBox="0 0 24 24" fill="none" xmlns="http://www.w3.org/2000/svg">
<path d="M16.293 2.70718L19.5859 6.00008H8.00015L8.00015 8.00008H19.5859L16.293 11.293L17.7073 12.7072L23.4144 7.00007L17.7073 1.29297L16.293 2.70718Z" fill="black"/>
<path d="M7.70628 21.2925L4.41339 17.9996H15.9992V15.9996H4.41338L7.70628 12.7067L6.29207 11.2925L0.584961 16.9996L6.29207 22.7067L7.70628 21.2925Z" fill="black"/>
</svg>

<svg xmlns="http://www.w3.org/2000/svg" width="24" height="24"><path d="M16.3 2.7 19.58 6H8v2h11.59l-3.3 3.3 1.42 1.4L23.4 7l-5.7-5.7zM7.7 21.3 4.42 18H16v-2H4.4l3.3-3.3-1.42-1.4L.6 17l5.7 5.7z"/></svg>
